X:1
T:Title
%%score { ( 1 2 5 ) | ( 3 4 ) }
L:1/8
Q:1/4=94
M:3/4
K:G
V:1 treble nm="Grand Piano"
V:2 treble 
V:5 treble 
V:3 bass 
V:4 bass 
V:1
 .D2 AG D[^CE] | G2 F4 | .D2 BA .E2 | E2 D4 | .D2 AG z E | G2 F4 | .[DF]2 A2 E2 | A2 z2 z2 | B6 | %9
w: Ira~B.~Wilson * * * *|||||||||
 c6 | c4 z2 | z2 [Bd]4 | [Bd][A^d] [^Ge]2 [B=d]2 |[M:7/8] z2 c2 z z2 |[M:3/4] B4 z2 | %15
w: ||||||
 [Ac]2 [GB]4 |] %16
w: |
V:2
 B,4 z2 | C6 | C6 | B,6 | B,4 D2 | D6 | z2 ^C4 | z G, [A,D]4 | .D2 [G,F]2 [G,G]2 | z2 F4 | %10
 DF A2 [ce]2 | [ce]d z2 [D,G,]2 | x6 |[M:7/8] [Bd][Ac] E2- [E_B]3 |[M:3/4] DE D2 [Bd]2 | x6 |] %16
V:3
 z B D,2 B,,_B,, | A,,2 D,2 D,,2 | z[K:treble] c[K:bass] D,2 z F | G,,2 D,2 D,,2 | %4
 z[K:treble] B[K:bass] D,2 B,,_B,, | A,,2 A,2 F,2 | z[K:treble] B A,2[K:bass] G,2 | %7
 C-[E,C-] [F,C]4 | z E D,2 D,2 | A,,2 [D,A,]2 D,2 | D,,2 [D,F,]2 [D,F,]2 | %11
 z[K:treble] B [D,G,]2 z2 | [G,,G,][=F,,=F,] [E,,E,]2 [E,^G,]2 | %13
[M:7/8] [A,,A,]2 [C,,C,]2 [^C,,^C,]3 |[M:3/4] [D,,D,]2 [D,G,]2 [D,G,]2 | [D,F,]2 [G,,D,G,]4 |] %16
V:4
 G,,2 z2 z2 | x6 | A,,2[K:treble][K:bass] z2 D,,2 | x6 | G,,2[K:treble][K:bass] z2 z2 | x6 | %6
 A,,6[K:treble][K:bass] | .[D,F,]2 z2 z2 | G,,2 z2 z2 | x6 | x6 | G,,2[K:treble] z2 z2 | x6 | %13
[M:7/8] x7 |[M:3/4] x6 | x6 |] %16
V:5
 x6 | x6 | x6 | x6 | x6 | x6 | x6 | x6 | x6 | GF z2 A,2 | x6 | x6 | x6 |[M:7/8] x7 |[M:3/4] x6 | %15
 x6 |] %16

